X:1
T:Illinois, LM
T:Illinois, LM
T:Jonathan Spilman (1812-1896) arr Thos. Hastings
T:Public Domain Courtesy of the Cyber Hymnal™
C:Jonathan Spilman (1812-1896) arr Thos. Hastings
Z:Public Domain
Z:Courtesy of the Cyber Hymnal™
%%score ( 1 2 ) ( 3 4 )
L:1/8
Q:1/4=105
M:2/4
K:D
V:1 treble 
V:2 treble 
V:3 bass 
V:4 bass 
V:1
 (D>E) | ([DF]>[EG]) ([FA]>[GB]) | [FA]2 [DF]2 | [CE]2 ([DF][EG]) | [DF]2 [CE]2 | [DF]2 [EA]2 | %6
 [Fd]2 [FB]2 | [EA]2 [D^G]2 | [CA]2 [DA]2 | [Fd]2 ([Ge]>[Ec]) | [Fd]2 [FA]2 | [GB]2 [FA][DF] | %12
 [CE]2 (D>E) | ([DF]>[EG]) ([FA]>[GB]) | [FA]2 [Fd]2 | [Ge]2 [Fd][Ec] | !fermata![Fd]2 |] %17
V:2
 D2 | x4 | x4 | x4 | x4 | x4 | x4 | x4 | x4 | x4 | x4 | x4 | x2 D2 | x4 | x4 | x4 | x2 |] %17
V:3
 (F,>G,) | [D,A,]2 [D,D]2 | [D,D]2 [D,A,]2 | [A,,A,]2 [A,,A,]2 | [D,A,]2 [A,,A,]2 | %5
 [D,A,]2 [C,E]2 | [C,D]2 [D,D]2 | [E,C]2 [E,B,]2 | [A,,A,]2 [D,F,]2 | [D,A,]2 [A,,A,]2 | %10
 [D,A,]2 [D,D]2 | [D,D]2 [D,A,]2 | [A,,A,]2 (F,>G,) | [D,A,]2 [D,D]2 | [D,D]2 [B,,D]2 | %15
 [G,,B,]2 [A,,A,]2 | !fermata![D,A,]2 |] %17
V:4
 D,2 | x4 | x4 | x4 | x4 | x4 | x4 | x4 | x4 | x4 | x4 | x4 | x2 D,2 | x4 | x4 | x4 | x2 |] %17

